client/src/styles/institution-admin.svg

<svg xmlns="http://www.w3.org/2000/svg" xml:space="preserve" style="fill-rule:evenodd;clip-rule:evenodd;stroke-linejoin:round;stroke-miterlimit:2" viewBox="0 0 500 500"><path d="M0 0h500v500H0z" style="fill:none"/><path d="M2970.65 1436.19v-81.74h66.77l-30.97 19.98 30.75 21.75h-56.67v39.81l81.26 83.22H3136v156.26h-117.97v-101.25h-86.65v101.25h-116.9v-156.26h76.15zm-148.68 72.22 43.04-29.98h51.07l-29.98 29.98zm307.36-.22h-64.13l-29.98-29.98h51.07zm-160.75 75.41v91.87h-27.83v-91.87zm38.65 0v91.87h-27.83v-91.87z" style="fill:#566b8d" transform="translate(-3863.03 -1844.31)scale(1.38242)"/></svg>

<?xml version="1.0" encoding="UTF-8" standalone="no"?>
<!DOCTYPE svg PUBLIC "-//W3C//DTD SVG 1.1//EN" "http://www.w3.org/Graphics/SVG/1.1/DTD/svg11.dtd">
<svg width="100%" height="100%" viewBox="0 0 500 500" version="1.1" xmlns="http://www.w3.org/2000/svg" xmlns:xlink="http://www.w3.org/1999/xlink" xml:space="preserve" xmlns:serif="http://www.serif.com/" style="fill-rule:evenodd;clip-rule:evenodd;stroke-linejoin:round;stroke-miterlimit:2;">
    <g transform="matrix(1,0,0,1,-2725.39,-2396.31)">
        <g id="institution-admin" transform="matrix(1,0,0,1,2725.39,2396.31)">
            <rect x="0" y="0" width="500" height="500" style="fill:none;"/>
            <g transform="matrix(1.38242,0,0,1.38242,-3863.03,-1844.31)">
                <path d="M2970.65,1436.19L2970.65,1354.45L3037.42,1354.45L3006.45,1374.43L3037.2,1396.18L2980.53,1396.18L2980.53,1435.99L3061.79,1519.21L3136,1519.21L3136,1675.47L3018.03,1675.47L3018.03,1574.22L2931.38,1574.22L2931.38,1675.47L2814.48,1675.47L2814.48,1519.21L2890.63,1519.21L2970.65,1436.19ZM2821.97,1508.41L2865.01,1478.43L2916.08,1478.43L2886.1,1508.41L2821.97,1508.41ZM3129.33,1508.19L3065.2,1508.19L3035.22,1478.21L3086.29,1478.21L3129.33,1508.19ZM2968.58,1583.6L2968.58,1675.47L2940.75,1675.47L2940.75,1583.6L2968.58,1583.6ZM3007.23,1583.6L3007.23,1675.47L2979.4,1675.47L2979.4,1583.6L3007.23,1583.6Z" style="fill:rgb(86,107,141);"/>
            </g>
        </g>
    </g>
</svg>
